assets/img/tasses/TasseBronze.svg

<?xml version="1.0" encoding="utf-8"?>
<!-- generated at drububu.com  -->
<!DOCTYPE svg PUBLIC "-//W3C//DTD SVG 1.1//EN" "http://www.w3.org/Graphics/SVG/1.1/DTD/svg11.dtd">
<svg version="1.1" preserveAspectRatio="xMinYMin meet" xmlns="http://www.w3.org/2000/svg" xmlns:xlink="http://www.w3.org/1999/xlink" x="0px" y="0px" width="22px" height="16px" viewBox="0 0 22 16">
<path d="M0 0h2v2h-2v-2z" fill="rgba(255,255,255,0)"/>
<path d="M2 0h14v2h-14v-2z" fill="rgb(53,32,17)"/>
<path d="M16 0h6v4h-2v-2h-4v-2z" fill="rgba(255,255,255,0)"/>
<path d="M0 2h2v10h-2v-10z" fill="rgb(53,32,17)"/>
<path d="M2 2h2v2h-2v-2z" fill="rgb(157,111,78)"/>
<path d="M4 2h2v2h-2v-2z" fill="rgb(165,117,82)"/>
<path d="M6 2h6v2h-6v-2z" fill="rgb(157,111,78)"/>
<path d="M12 2h2v2h-2v-2z" fill="rgb(165,117,82)"/>
<path d="M14 2h2v2h-2v-2z" fill="rgb(157,111,78)"/>
<path d="M16 2h4v2h-4v-2z" fill="rgb(53,32,17)"/>
<path d="M2 4h14v2h-14v-2z" fill="rgb(255,204,0)"/>
<path d="M16 4h4v4h-2v-2h-2v-2z" fill="rgb(157,111,78)"/>
<path d="M20 4h2v4h-2v-4z" fill="rgb(53,32,17)"/>
<path d="M2 6h2v2h-2v-2z" fill="rgb(165,117,82)"/>
<path d="M4 6h6v2h-6v-2z" fill="rgb(157,111,78)"/>
<path d="M10 6h2v2h-2v-2z" fill="rgb(165,117,82)"/>
<path d="M12 6h4v2h-4v-2z" fill="rgb(157,111,78)"/>
<path d="M16 6h2v2h-2v-2z" fill="rgb(53,32,17)"/>
<path d="M2 8h14v2h-14v-2z" fill="rgb(255,204,0)"/>
<path d="M16 8h2v2h-2v-2z" fill="rgb(157,111,78)"/>
<path d="M18 8h2v2h-2v-2z" fill="rgb(53,32,17)"/>
<path d="M20 8h2v8h-8v-2h2v-2h2v-2h2v-2z" fill="rgba(255,255,255,0)"/>
<path d="M2 10h6v2h-6v-2z" fill="rgb(157,111,78)"/>
<path d="M8 10h2v2h-2v-2z" fill="rgb(165,117,82)"/>
<path d="M10 10h6v2h-6v-2z" fill="rgb(157,111,78)"/>
<path d="M16 10h2v2h-2v-2z" fill="rgb(53,32,17)"/>
<path d="M0 12h2v2h2v2h-4v-4z" fill="rgba(255,255,255,0)"/>
<path d="M2 12h2v2h-2v-2z" fill="rgb(53,32,17)"/>
<path d="M4 12h4v2h-4v-2z" fill="rgb(127,74,36)"/>
<path d="M8 12h2v2h-2v-2z" fill="rgb(127,90,63)"/>
<path d="M10 12h2v2h-2v-2z" fill="rgb(155,128,108)"/>
<path d="M12 12h2v2h-2v-2z" fill="rgb(127,74,36)"/>
<path d="M14 12h2v2h-2v-2z" fill="rgb(53,32,17)"/>
<path d="M4 14h10v2h-10v-2z" fill="rgb(53,32,17)"/>
</svg>

<svg xmlns="http://www.w3.org/2000/svg" width="22" height="16" preserveAspectRatio="xMinYMin meet"><path fill="rgba(255,255,255,0)" d="M0 0h2v2H0V0z"/><path fill="#352011" d="M2 0h14v2H2V0z"/><path fill="rgba(255,255,255,0)" d="M16 0h6v4h-2V2h-4V0z"/><path fill="#352011" d="M0 2h2v10H0V2z"/><path fill="#9D6F4E" d="M2 2h2v2H2V2z"/><path fill="#A57552" d="M4 2h2v2H4V2z"/><path fill="#9D6F4E" d="M6 2h6v2H6V2z"/><path fill="#A57552" d="M12 2h2v2h-2V2z"/><path fill="#9D6F4E" d="M14 2h2v2h-2V2z"/><path fill="#352011" d="M16 2h4v2h-4V2z"/><path fill="#FC0" d="M2 4h14v2H2V4z"/><path fill="#9D6F4E" d="M16 4h4v4h-2V6h-2V4z"/><path fill="#352011" d="M20 4h2v4h-2V4z"/><path fill="#A57552" d="M2 6h2v2H2V6z"/><path fill="#9D6F4E" d="M4 6h6v2H4V6z"/><path fill="#A57552" d="M10 6h2v2h-2V6z"/><path fill="#9D6F4E" d="M12 6h4v2h-4V6z"/><path fill="#352011" d="M16 6h2v2h-2V6z"/><path fill="#FC0" d="M2 8h14v2H2V8z"/><path fill="#9D6F4E" d="M16 8h2v2h-2V8z"/><path fill="#352011" d="M18 8h2v2h-2V8z"/><path fill="rgba(255,255,255,0)" d="M20 8h2v8h-8v-2h2v-2h2v-2h2V8z"/><path fill="#9D6F4E" d="M2 10h6v2H2v-2z"/><path fill="#A57552" d="M8 10h2v2H8v-2z"/><path fill="#9D6F4E" d="M10 10h6v2h-6v-2z"/><path fill="#352011" d="M16 10h2v2h-2v-2z"/><path fill="rgba(255,255,255,0)" d="M0 12h2v2h2v2H0v-4z"/><path fill="#352011" d="M2 12h2v2H2v-2z"/><path fill="#7F4A24" d="M4 12h4v2H4v-2z"/><path fill="#7F5A3F" d="M8 12h2v2H8v-2z"/><path fill="#9B806C" d="M10 12h2v2h-2v-2z"/><path fill="#7F4A24" d="M12 12h2v2h-2v-2z"/><path fill="#352011" d="M14 12h2v2h-2v-2zM4 14h10v2H4v-2z"/></svg>
